lib/svgs/usercase-import.svg

<?xml version="1.0" encoding="UTF-8"?>
<svg width="16px" height="16px" viewBox="0 0 16 16" version="1.1" xmlns="http://www.w3.org/2000/svg" xmlns:xlink="http://www.w3.org/1999/xlink">
    <!-- Generator: sketchtool 51.3 (57544) - http://www.bohemiancoding.com/sketch -->
    <title>test-case/usercase-import</title>
    <desc>Created with sketchtool.</desc>
    <defs></defs>
    <g id="Icons" stroke="none" stroke-width="1" fill="none" fill-rule="evenodd">
        <g id="Artboard" transform="translate(-169.000000, -213.000000)" fill="#000000" fill-rule="nonzero">
            <g id="test-case/usercase-import" transform="translate(169.000000, 213.000000)">
                <path d="M13.7142857,14.6942041 C14.2552778,14.6942041 14.6938776,14.2558062 14.6938776,13.7146122 L14.6938776,5.00712925 C14.6938776,4.46593526 14.2552778,4.02753741 13.7142857,4.02753741 L5.00680272,4.02753741 C4.46581067,4.02753741 4.02721088,4.46593526 4.02721088,5.00712925 L4.02721088,13.7146122 C4.02721088,14.2558062 4.46581067,14.6942041 5.00680272,14.6942041 L13.7142857,14.6942041 Z M13.7142857,16.0003265 L5.00680272,16.0003265 C3.74459377,16.0003265 2.72108844,14.9772924 2.72108844,13.7146122 L2.72108844,5.00712925 C2.72108844,3.74444907 3.74459377,2.72141497 5.00680272,2.72141497 L13.7142857,2.72141497 C14.9764947,2.72141497 16,3.74444907 16,5.00712925 L16,13.7146122 C16,14.9772924 14.9764947,16.0003265 13.7142857,16.0003265 Z M1.30612245,10.6438095 C1.30612245,11.0044853 1.01373698,11.2968707 0.653061224,11.2968707 C0.292385469,11.2968707 0,11.0044853 0,10.6438095 L0,2.28571429 C0,1.02381404 1.02381404,0 2.28571429,0 L10.6438095,0 C11.0044853,0 11.2968707,0.292385469 11.2968707,0.653061224 C11.2968707,1.01373698 11.0044853,1.30612245 10.6438095,1.30612245 L2.28571429,1.30612245 C1.74516555,1.30612245 1.30612245,1.74516555 1.30612245,2.28571429 L1.30612245,10.6438095 Z M7.18367347,10.013932 C6.82299771,10.013932 6.53061224,9.7215465 6.53061224,9.36087075 C6.53061224,9.00019499 6.82299771,8.70780952 7.18367347,8.70780952 L11.537415,8.70780952 C11.8980907,8.70780952 12.1904762,9.00019499 12.1904762,9.36087075 C12.1904762,9.7215465 11.8980907,10.013932 11.537415,10.013932 L7.18367347,10.013932 Z M10.0136054,11.5377415 C10.0136054,11.8984173 9.72121997,12.1908027 9.36054422,12.1908027 C8.99986846,12.1908027 8.70748299,11.8984173 8.70748299,11.5377415 L8.70748299,7.184 C8.70748299,6.82332425 8.99986846,6.53093878 9.36054422,6.53093878 C9.72121997,6.53093878 10.0136054,6.82332425 10.0136054,7.184 L10.0136054,11.5377415 Z" id="usercase-import"></path>
            </g>
        </g>
    </g>
</svg>

<svg xmlns="http://www.w3.org/2000/svg" viewBox="0 0 16 16">
    <path d="M13.714 14.694a.98.98 0 0 0 .98-.98V5.008a.98.98 0 0 0-.98-.98H5.007a.98.98 0 0 0-.98.98v8.708c0 .54.439.98.98.98h8.707zm0 1.306H5.007a2.286 2.286 0 0 1-2.286-2.285V5.007a2.286 2.286 0 0 1 2.286-2.286h8.707A2.286 2.286 0 0 1 16 5.007v8.708A2.286 2.286 0 0 1 13.714 16zM1.306 10.644a.653.653 0 1 1-1.306 0V2.286A2.286 2.286 0 0 1 2.286 0h8.358a.653.653 0 1 1 0 1.306H2.286a.98.98 0 0 0-.98.98v8.358zm5.878-.63a.653.653 0 0 1 0-1.306h4.353a.653.653 0 0 1 0 1.306H7.184zm2.83 1.524a.653.653 0 1 1-1.307 0V7.184a.653.653 0 0 1 1.307 0v4.354z"/>
</svg>
